resources/payment_providers/skrill/icon.svg

<?xml version="1.0" encoding="UTF-8"?>
<svg version="1.1" viewBox="0 0 227 78" xmlns="http://www.w3.org/2000/svg">
<title>skrill-logo-white</title>
<desc>Created with Sketch.</desc>
<defs>
<linearGradient id="a" x1="27.044%" x2="79.263%" y2="100%">
<stop stop-color="#6B195F" offset="0"/>
<stop stop-color="#4C255B" offset="1"/>
</linearGradient>
</defs>
<g fill="none" fill-rule="evenodd">
<g fill="url(#a)">
<path d="m162.89 19.153c5.141 0 9.308-4.165 9.308-9.301 0-5.139-4.167-9.308-9.308-9.308-5.135 0-9.3 4.169-9.3 9.308 0 5.136 4.165 9.301 9.3 9.301zm-71.287 5.023c-0.42 1.055-3.443 9.594-10.754 18.444v-37.841l-19.48 3.85v68.591h19.48v-21.202c5.642 8.462 8.428 21.202 8.428 21.202h23.333c-2.308-9.595-12.404-27.287-12.404-27.287 9.061-11.488 13.041-23.729 13.674-25.757h-22.277zm51.212-0.716c-17.448 0.56-26.305 8.388-26.305 23.949v29.811h19.035v-24.31c0-9.318 1.22-13.312 12.277-13.693v-15.484c-1.861-0.395-5.007-0.273-5.007-0.273zm-114.12 8.269c-2.386-0.157-7.91-0.514-7.91-5.487 0-6.001 7.953-6.001 10.936-6.001 5.245 0 12.038 1.55 16.889 3.001 0 0 2.706 0.954 5.009 1.931l0.214 0.058v-16.435l-0.294-0.087c-5.725-2.003-12.382-3.93-24.724-3.93-21.28 0-28.82 12.397-28.82 23.017 0 6.122 2.624 20.53 26.995 22.192 2.066 0.127 7.549 0.443 7.549 5.582 0 4.243-4.489 6.745-12.039 6.745-8.274 0-16.3-2.11-21.175-4.111v16.927c7.298 1.913 15.525 2.869 25.167 2.869 20.807 0 30.126-11.729 30.126-23.354 0-13.181-10.428-21.745-27.923-22.917zm124.76 45.491h18.881v-52.984h-18.881v52.984zm54.433-69.063v69.063h18.884v-72.441l-18.884 3.378zm-27.554 0 18.866-3.378v72.441h-18.866v-69.063z"/>
</g>
</g>
</svg>

<?xml version="1.0" encoding="UTF-8"?>
<svg width="227px" height="78px" viewBox="0 0 227 78" version="1.1" xmlns="http://www.w3.org/2000/svg" xmlns:xlink="http://www.w3.org/1999/xlink">
    <!-- Generator: Sketch 43.2 (39069) - http://www.bohemiancoding.com/sketch -->
    <title>skrill-logo-white</title>
    <desc>Created with Sketch.</desc>
    <defs>
        <linearGradient x1="27.0439582%" y1="0%" x2="79.2629133%" y2="100%" id="linearGradient-1">
            <stop stop-color="#6B195F" offset="0%"></stop>
            <stop stop-color="#4C255B" offset="100%"></stop>
        </linearGradient>
    </defs>
    <g id="Page-1" stroke="none" stroke-width="1" fill="none" fill-rule="evenodd">
        <g id="skrill-logo-web-1-rgb" fill="url(#linearGradient-1)">
            <path d="M162.891,19.153 C168.032,19.153 172.199,14.988 172.199,9.852 C172.199,4.713 168.032,0.544 162.891,0.544 C157.756,0.544 153.591,4.713 153.591,9.852 C153.591,14.988 157.756,19.153 162.891,19.153 L162.891,19.153 Z M91.604,24.176 C91.184,25.231 88.161,33.77 80.85,42.62 L80.85,4.779 L61.37,8.629 L61.37,77.22 L80.85,77.22 L80.85,56.018 C86.492,64.48 89.278,77.22 89.278,77.22 L112.611,77.22 C110.303,67.625 100.207,49.933 100.207,49.933 C109.268,38.445 113.248,26.204 113.881,24.176 L91.604,24.176 L91.604,24.176 Z M142.816,23.46 C125.368,24.02 116.511,31.848 116.511,47.409 L116.511,77.22 L135.546,77.22 L135.546,52.91 C135.546,43.592 136.766,39.598 147.823,39.217 L147.823,23.733 C145.962,23.338 142.816,23.46 142.816,23.46 L142.816,23.46 Z M28.7,31.729 C26.314,31.572 20.79,31.215 20.79,26.242 C20.79,20.241 28.743,20.241 31.726,20.241 C36.971,20.241 43.764,21.791 48.615,23.242 C48.615,23.242 51.321,24.196 53.624,25.173 L53.838,25.231 L53.838,8.796 L53.544,8.709 C47.819,6.706 41.162,4.779 28.82,4.779 C7.54,4.779 0,17.176 0,27.796 C0,33.918 2.624,48.326 26.995,49.988 C29.061,50.115 34.544,50.431 34.544,55.57 C34.544,59.813 30.055,62.315 22.505,62.315 C14.231,62.315 6.205,60.205 1.33,58.204 L1.33,75.131 C8.628,77.044 16.855,78 26.497,78 C47.304,78 56.623,66.271 56.623,54.646 C56.623,41.465 46.195,32.901 28.7,31.729 L28.7,31.729 Z M153.455,77.22 L172.336,77.22 L172.336,24.236 L153.455,24.236 L153.455,77.22 Z M207.888,8.157 L207.888,77.22 L226.772,77.22 L226.772,4.779 L207.888,8.157 L207.888,8.157 Z M180.334,8.157 L199.2,4.779 L199.2,77.22 L180.334,77.22 L180.334,8.157 L180.334,8.157 Z" id="Fill-1"></path>
        </g>
    </g>
</svg>
